public/figures/india-ai-industrial-transition-2026-2035/fig-19.svg

<?xml version="1.0" encoding="utf-8" standalone="no"?>
<!DOCTYPE svg PUBLIC "-//W3C//DTD SVG 1.1//EN"
  "http://www.w3.org/Graphics/SVG/1.1/DTD/svg11.dtd">
<svg xmlns:xlink="http://www.w3.org/1999/xlink" width="711.36pt" height="495.9025pt" viewBox="0 0 711.36 495.9025" xmlns="http://www.w3.org/2000/svg" version="1.1">
 <metadata>
  <rdf:RDF xmlns:dc="http://purl.org/dc/elements/1.1/" xmlns:cc="http://creativecommons.org/ns#" xmlns:rdf="http://www.w3.org/1999/02/22-rdf-syntax-ns#">
   <cc:Work>
    <dc:type rdf:resource="http://purl.org/dc/dcmitype/StillImage"/>
    <dc:date>2026-05-28T09:02:41.669523</dc:date>
    <dc:format>image/svg+xml</dc:format>
    <dc:creator>
     <cc:Agent>
      <dc:title>Matplotlib v3.10.8, https://matplotlib.org/</dc:title>
     </cc:Agent>
    </dc:creator>
   </cc:Work>
  </rdf:RDF>
 </metadata>
 <defs>
  <style type="text/css">*{stroke-linejoin: round; stroke-linecap: butt}</style>
 </defs>
 <g id="figure_1">
  <g id="patch_1">
   <path d="M 0 495.9025 
L 711.36 495.9025 
L 711.36 0 
L 0 0 
z
" style="fill: #fbf9f4"/>
  </g>
  <g id="axes_1">
   <g id="patch_2">
    <path d="M 89.37 175.01235 
L 611.1 175.01235 
Q 613.5552 175.01235 613.5552 172.79475 
L 613.5552 111.81075 
Q 613.5552 109.59315 611.1 109.59315 
L 89.37 109.59315 
Q 86.9148 109.59315 86.9148 111.81075 
L 86.9148 172.79475 
Q 86.9148 175.01235 89.37 175.01235 
z
" clip-path="url(#p5c831b363c)" style="fill: #c9a84c; opacity: 0.35; stroke: #c9a84c; stroke-width: 1.5; stroke-linejoin: miter"/>
   </g>
   <g id="patch_3">
    <path d="M 469.926 163.36995 
L 604.962 163.36995 
Q 606.8034 163.36995 606.8034 161.70675 
L 606.8034 122.89875 
Q 606.8034 121.23555 604.962 121.23555 
L 469.926 121.23555 
Q 468.0846 121.23555 468.0846 122.89875 
L 468.0846 161.70675 
Q 468.0846 163.36995 469.926 163.36995 
z
" clip-path="url(#p5c831b363c)" style="fill: #fbf9f4; stroke: #c9a84c; stroke-width: 1.2; stroke-linejoin: miter"/>
   </g>
   <g id="patch_4">
    <path d="M 89.37 258.17235 
L 611.1 258.17235 
Q 613.5552 258.17235 613.5552 255.95475 
L 613.5552 194.97075 
Q 613.5552 192.75315 611.1 192.75315 
L 89.37 192.75315 
Q 86.9148 192.75315 86.9148 194.97075 
L 86.9148 255.95475 
Q 86.9148 258.17235 89.37 258.17235 
z
" clip-path="url(#p5c831b363c)" style="fill: #2bc5b4; opacity: 0.35; stroke: #2bc5b4; stroke-width: 1.5; stroke-linejoin: miter"/>
   </g>
   <g id="patch_5">
    <path d="M 469.926 246.52995 
L 604.962 246.52995 
Q 606.8034 246.52995 606.8034 244.86675 
L 606.8034 206.05875 
Q 606.8034 204.39555 604.962 204.39555 
L 469.926 204.39555 
Q 468.0846 204.39555 468.0846 206.05875 
L 468.0846 244.86675 
Q 468.0846 246.52995 469.926 246.52995 
z
" clip-path="url(#p5c831b363c)" style="fill: #fbf9f4; stroke: #2bc5b4; stroke-width: 1.2; stroke-linejoin: miter"/>
   </g>
   <g id="patch_6">
    <path d="M 89.37 341.33235 
L 611.1 341.33235 
Q 613.5552 341.33235 613.5552 339.11475 
L 613.5552 278.13075 
Q 613.5552 275.91315 611.1 275.91315 
L 89.37 275.91315 
Q 86.9148 275.91315 86.9148 278.13075 
L 86.9148 339.11475 
Q 86.9148 341.33235 89.37 341.33235 
z
" clip-path="url(#p5c831b363c)" style="fill: #e4d3a6; opacity: 0.35; stroke: #e4d3a6; stroke-width: 1.5; stroke-linejoin: miter"/>
   </g>
   <g id="patch_7">
    <path d="M 469.926 329.68995 
L 604.962 329.68995 
Q 606.8034 329.68995 606.8034 328.02675 
L 606.8034 289.21875 
Q 606.8034 287.55555 604.962 287.55555 
L 469.926 287.55555 
Q 468.0846 287.55555 468.0846 289.21875 
L 468.0846 328.02675 
Q 468.0846 329.68995 469.926 329.68995 
z
" clip-path="url(#p5c831b363c)" style="fill: #fbf9f4; stroke: #e4d3a6; stroke-width: 1.2; stroke-linejoin: miter"/>
   </g>
   <g id="patch_8">
    <path d="M 89.37 424.49235 
L 611.1 424.49235 
Q 613.5552 424.49235 613.5552 422.27475 
L 613.5552 361.29075 
Q 613.5552 359.07315 611.1 359.07315 
L 89.37 359.07315 
Q 86.9148 359.07315 86.9148 361.29075 
L 86.9148 422.27475 
Q 86.9148 424.49235 89.37 424.49235 
z
" clip-path="url(#p5c831b363c)" style="fill: #4a5567; opacity: 0.35; stroke: #4a5567; stroke-width: 1.5; stroke-linejoin: miter"/>
   </g>
   <g id="patch_9">
    <path d="M 469.926 412.84995 
L 604.962 412.84995 
Q 606.8034 412.84995 606.8034 411.18675 
L 606.8034 372.37875 
Q 606.8034 370.71555 604.962 370.71555 
L 469.926 370.71555 
Q 468.0846 370.71555 468.0846 372.37875 
L 468.0846 411.18675 
Q 468.0846 412.84995 469.926 412.84995 
z
" clip-path="url(#p5c831b363c)" style="fill: #fbf9f4; stroke: #4a5567; stroke-width: 1.2; stroke-linejoin: miter"/>
   </g>
   <g id="text_1">
    <text x="101.65" y="124.56" font-family="Arial, Helvetica, sans-serif" font-size="12.0" fill="#0f1828">DESIGN</text>
   </g>
   <g id="text_2">
    <text x="101.65" y="143.41" font-family="Arial, Helvetica, sans-serif" font-size="8.5" font-style="italic" fill="#0f1828">Chip architects · ML researchers · LLM engineers · EDA · compiler engineers</text>
   </g>
   <g id="text_3">
    <text x="101.65" y="160.04" font-family="Arial, Helvetica, sans-serif" font-size="7.5" fill="#4a5567">Bengaluru · Hyderabad · Noida · Pune</text>
   </g>
   <g id="text_4">
    <text x="413.27" y="144.48" font-family="Arial, Helvetica, sans-serif" font-size="8.0" fill="#0f1828">~60k semi designers + ~100–150k AI design engineers</text>
   </g>
   <g id="text_5">
    <text x="101.65" y="207.72" font-family="Arial, Helvetica, sans-serif" font-size="12.0" fill="#0f1828">INFRASTRUCTURE</text>
   </g>
   <g id="text_6">
    <text x="101.65" y="226.57" font-family="Arial, Helvetica, sans-serif" font-size="8.5" font-style="italic" fill="#0f1828">DC engineers · MEP · MLOps · AIOps · cloud-native · cybersecurity</text>
   </g>
   <g id="text_7">
    <text x="101.65" y="243.20" font-family="Arial, Helvetica, sans-serif" font-size="7.5" fill="#4a5567">All seven corridors</text>
   </g>
   <g id="text_8">
    <text x="453.34" y="227.64" font-family="Arial, Helvetica, sans-serif" font-size="8.0" fill="#0f1828">~200–300k today → 700k–1M by 2030</text>
   </g>
   <g id="text_9">
    <text x="101.65" y="290.88" font-family="Arial, Helvetica, sans-serif" font-size="12.0" fill="#0f1828">APPLICATION</text>
   </g>
   <g id="text_10">
    <text x="101.65" y="309.73" font-family="Arial, Helvetica, sans-serif" font-size="8.5" font-style="italic" fill="#0f1828">Industrial-AI · healthcare-AI · BFSI-AI · retail-AI · ag-AI · ed-tech</text>
   </g>
   <g id="text_11">
    <text x="101.65" y="326.36" font-family="Arial, Helvetica, sans-serif" font-size="7.5" fill="#4a5567">Distributed nationally</text>
   </g>
   <g id="text_12">
    <text x="461.56" y="310.80" font-family="Arial, Helvetica, sans-serif" font-size="8.0" fill="#0f1828">~500–800k today → 2–3M by 2030</text>
   </g>
   <g id="text_13">
    <text x="101.65" y="374.04" font-family="Arial, Helvetica, sans-serif" font-size="12.0" fill="#0f1828">GOVERNANCE</text>
   </g>
   <g id="text_14">
    <text x="101.65" y="392.89" font-family="Arial, Helvetica, sans-serif" font-size="8.5" font-style="italic" fill="#0f1828">AI ethics · policy · risk · audit · safety · regulatory affairs</text>
   </g>
   <g id="text_15">
    <text x="101.65" y="409.52" font-family="Arial, Helvetica, sans-serif" font-size="7.5" fill="#4a5567">NCR · Bengaluru · Mumbai (concentrated)</text>
   </g>
   <g id="text_16">
    <text x="442.55" y="393.96" font-family="Arial, Helvetica, sans-serif" font-size="8.0" fill="#0f1828">Low thousands today → 100–200k by 2030</text>
   </g>
   <g id="patch_10">
    <path d="M 641.79 423.050484 
Q 641.79 275.36117 641.79 130.466941 
" style="fill: none; stroke: #c9a84c; stroke-width: 2.5; stroke-linecap: round"/>
    <path d="M 639.79 134.466941 
L 641.79 130.466941 
L 643.79 134.466941 
" style="fill: none; stroke: #c9a84c; stroke-width: 2.5; stroke-linecap: round"/>
   </g>
   <g id="text_17">
    <text x="644.86" y="267.76" font-family="Arial, Helvetica, sans-serif" font-size="9.0" fill="#c9a84c">VALUE</text>
    <text x="644.86" y="277.84" font-family="Arial, Helvetica, sans-serif" font-size="9.0" fill="#c9a84c">FLOWS</text>
    <text x="644.86" y="287.92" font-family="Arial, Helvetica, sans-serif" font-size="9.0" fill="#c9a84c">UP</text>
   </g>
  </g>
  <g id="text_18">
   <text x="7.20" y="24.68" font-family="Arial, Helvetica, sans-serif" font-size="15.0" fill="#0f1828">The four-layer Talent Stack — India</text>
  </g>
  <g id="text_19">
   <text x="7.20" y="33.44" font-family="Arial, Helvetica, sans-serif" font-size="10.5" font-style="italic" fill="#4a5567">Each layer has distinct demand dynamics, education requirements and policy levers</text>
  </g>
  <g id="text_20">
   <text x="564.51" y="13.28" font-family="Arial, Helvetica, sans-serif" font-size="8.0" fill="#c0c5cc">Figure 19 · Techadyant Labs · 2026</text>
  </g>
  <g id="text_21">
   <text x="7.20" y="487.04" font-family="Arial, Helvetica, sans-serif" font-size="8.0" font-style="italic" fill="#4a5567">Source: NASSCOM-Deloitte 2024; NASSCOM-BCG 2024; EY GCC Pulse 2025; Techadyant Labs framework.</text>
  </g>
 </g>
 <defs>
  <clipPath id="p5c831b363c">
   <rect x="58.68" y="53.59875" width="613.8" height="388.08"/>
  </clipPath>
 </defs>
</svg>

<?xml version="1.0" encoding="UTF-8"?>
<svg id="Layer_1" xmlns="http://www.w3.org/2000/svg" version="1.1" xmlns:xlink="http://www.w3.org/1999/xlink" viewBox="0 0 711.36 495.9">
  <!-- Generator: Adobe Illustrator 30.4.0, SVG Export Plug-In . SVG Version: 2.1.4 Build 226)  -->
  <defs>
    <style>
      .st0 {
        clip-path: url(#clippath-6);
      }

      .st1, .st2, .st3, .st4, .st5, .st6, .st7, .st8, .st9, .st10, .st11, .st12, .st13 {
        isolation: isolate;
      }

      .st1, .st3, .st5 {
        font-size: 8px;
      }

      .st1, .st5, .st8, .st10, .st11, .st12 {
        font-family: ArialMT, Arial;
      }

      .st1, .st7, .st8, .st12 {
        fill: #0f1828;
      }

      .st14 {
        clip-path: url(#clippath-4);
      }

      .st2, .st3, .st10, .st13 {
        fill: #4a5567;
      }

      .st2, .st4, .st6, .st9 {
        opacity: .35;
        stroke-width: 1.5px;
      }

      .st2, .st15 {
        stroke: #4a5567;
      }

      .st16, .st17, .st18, .st15, .st19 {
        fill: #fbf9f4;
      }

      .st20 {
        fill: #fff;
      }

      .st3, .st7, .st13 {
        font-family: Arial-ItalicMT, Arial;
        font-style: italic;
      }

      .st4 {
        fill: #2bc5b4;
      }

      .st4, .st18 {
        stroke: #2bc5b4;
      }

      .st5 {
        fill: #c0c5cc;
      }

      .st21, .st22 {
        fill: none;
      }

      .st17, .st18, .st15, .st19 {
        stroke-width: 1.2px;
      }

      .st17, .st9, .st22 {
        stroke: #c9a84c;
      }

      .st23 {
        clip-path: url(#clippath-1);
      }

      .st6 {
        fill: #e4d3a6;
      }

      .st6, .st19 {
        stroke: #e4d3a6;
      }

      .st24 {
        clip-path: url(#clippath-5);
      }

      .st7 {
        font-size: 8.5px;
      }

      .st8 {
        font-size: 15px;
      }

      .st25 {
        clip-path: url(#clippath-3);
      }

      .st9, .st11 {
        fill: #c9a84c;
      }

      .st10 {
        font-size: 7.5px;
      }

      .st22 {
        stroke-linecap: round;
        stroke-linejoin: round;
        stroke-width: 2.5px;
      }

      .st26 {
        clip-path: url(#clippath-2);
      }

      .st11 {
        font-size: 9px;
      }

      .st12 {
        font-size: 12px;
      }

      .st13 {
        font-size: 10.5px;
      }

      .st27 {
        clip-path: url(#clippath);
      }
    </style>
    <clipPath id="clippath">
      <rect class="st21" x="58.68" y="53.6" width="613.8" height="388.08"/>
    </clipPath>
    <clipPath id="clippath-1">
      <rect class="st21" x="58.68" y="53.6" width="613.8" height="388.08"/>
    </clipPath>
    <clipPath id="clippath-2">
      <rect class="st21" x="58.68" y="53.6" width="613.8" height="388.08"/>
    </clipPath>
    <clipPath id="clippath-3">
      <rect class="st21" x="58.68" y="53.6" width="613.8" height="388.08"/>
    </clipPath>
    <clipPath id="clippath-4">
      <rect class="st21" x="58.68" y="53.6" width="613.8" height="388.08"/>
    </clipPath>
    <clipPath id="clippath-5">
      <rect class="st21" x="58.68" y="53.6" width="613.8" height="388.08"/>
    </clipPath>
    <clipPath id="clippath-6">
      <rect class="st21" x="58.68" y="53.6" width="613.8" height="388.08"/>
    </clipPath>
  </defs>
  <path class="st16" d="M0,495.9h711.36V0H0v495.9Z"/>
  <rect class="st20" x="58.68" y="73.89" width="613.8" height="367.79"/>
  <g class="st27">
    <path class="st9" d="M89.37,175.01h521.73c1.64,0,2.46-.74,2.46-2.22v-60.98c0-1.48-.82-2.22-2.46-2.22H89.37c-1.64,0-2.46.74-2.46,2.22v60.98c0,1.48.82,2.22,2.46,2.22Z"/>
  </g>
  <g class="st23">
    <path class="st17" d="M469.93,163.37h135.04c1.23,0,1.84-.55,1.84-1.66v-38.81c0-1.11-.61-1.66-1.84-1.66h-135.04c-1.23,0-1.84.55-1.84,1.66v38.81c0,1.11.61,1.66,1.84,1.66Z"/>
  </g>
  <g class="st26">
    <path class="st4" d="M89.37,258.17h521.73c1.64,0,2.46-.74,2.46-2.22v-60.98c0-1.48-.82-2.22-2.46-2.22H89.37c-1.64,0-2.46.74-2.46,2.22v60.98c0,1.48.82,2.22,2.46,2.22Z"/>
  </g>
  <g class="st25">
    <path class="st18" d="M469.93,246.53h135.04c1.23,0,1.84-.55,1.84-1.66v-38.81c0-1.11-.61-1.66-1.84-1.66h-135.04c-1.23,0-1.84.55-1.84,1.66v38.81c0,1.11.61,1.66,1.84,1.66Z"/>
  </g>
  <g class="st14">
    <path class="st6" d="M89.37,341.33h521.73c1.64,0,2.46-.74,2.46-2.22v-60.98c0-1.48-.82-2.22-2.46-2.22H89.37c-1.64,0-2.46.74-2.46,2.22v60.98c0,1.48.82,2.22,2.46,2.22Z"/>
  </g>
  <g class="st24">
    <path class="st19" d="M469.93,329.69h135.04c1.23,0,1.84-.55,1.84-1.66v-38.81c0-1.11-.61-1.66-1.84-1.66h-135.04c-1.23,0-1.84.55-1.84,1.66v38.81c0,1.11.61,1.66,1.84,1.66Z"/>
  </g>
  <g class="st0">
    <path class="st2" d="M89.37,424.49h521.73c1.64,0,2.46-.74,2.46-2.22v-60.98c0-1.48-.82-2.22-2.46-2.22H89.37c-1.64,0-2.46.74-2.46,2.22v60.98c0,1.48.82,2.22,2.46,2.22Z"/>
  </g>
  <path class="st15" d="M469.93,412.85h135.04c1.23,0,1.84-.55,1.84-1.66v-38.81c0-1.11-.61-1.66-1.84-1.66h-135.04c-1.23,0-1.84.55-1.84,1.66v38.81c0,1.11.61,1.66,1.84,1.66Z"/>
  <text class="st12" transform="translate(101.65 124.56)"><tspan x="0" y="0">DESIGN</tspan></text>
  <text class="st7" transform="translate(101.65 143.41)"><tspan x="0" y="0">Chip architects · ML researchers · LLM engineers · EDA · compiler engineers</tspan></text>
  <text class="st10" transform="translate(101.65 160.04)"><tspan x="0" y="0">Bengaluru · Hyderabad · Noida · Pune</tspan></text>
  <text class="st1" transform="translate(413.27 144.48)"><tspan x="0" y="0">~60k semi designers + ~100–150k AI design engineers</tspan></text>
  <text class="st12" transform="translate(101.65 207.72)"><tspan x="0" y="0">INFRASTRUCTURE</tspan></text>
  <text class="st7" transform="translate(101.65 226.57)"><tspan x="0" y="0">DC engineers · MEP · MLOps · AIOps · cloud-native · cybersecurity</tspan></text>
  <text class="st10" transform="translate(101.65 243.2)"><tspan x="0" y="0">All seven corridors</tspan></text>
  <text class="st1" transform="translate(453.34 227.64)"><tspan x="0" y="0">~200–300k today → 700k–1M by 2030</tspan></text>
  <text class="st12" transform="translate(101.65 290.88)"><tspan x="0" y="0">APPLICATION</tspan></text>
  <text class="st7" transform="translate(101.65 309.73)"><tspan x="0" y="0">Industrial-AI · healthcare-AI · BFSI-AI · retail-AI · ag-AI · ed-tech</tspan></text>
  <text class="st10" transform="translate(101.65 326.36)"><tspan x="0" y="0">Distributed nationally</tspan></text>
  <text class="st1" transform="translate(461.56 310.8)"><tspan x="0" y="0">~500–800k today → 2–3M by 2030</tspan></text>
  <text class="st12" transform="translate(101.65 374.04)"><tspan x="0" y="0">GOVERNANCE</tspan></text>
  <text class="st7" transform="translate(101.65 392.89)"><tspan x="0" y="0">AI ethics · policy · risk · audit · safety · regulatory affairs</tspan></text>
  <text class="st10" transform="translate(101.65 409.52)"><tspan x="0" y="0">NCR · Bengaluru · Mumbai (concentrated)</tspan></text>
  <text class="st1" transform="translate(442.55 393.96)"><tspan x="0" y="0">Low thousands today → 100–200k by 2030</tspan></text>
  <path class="st22" d="M641.79,423.05V130.47"/>
  <path class="st22" d="M639.79,134.47l2-4,2,4"/>
  <text class="st11" transform="translate(644.86 267.76)"><tspan x="0" y="0">VALUE</tspan></text>
  <text class="st11" transform="translate(644.86 277.84)"><tspan x="0" y="0">FLOWS</tspan></text>
  <text class="st11" transform="translate(644.86 287.92)"><tspan x="0" y="0">UP</tspan></text>
  <text class="st8" transform="translate(15.67 31.55)"><tspan x="0" y="0">The four-layer Talent Stack — India</tspan></text>
  <text class="st13" transform="translate(15.22 53.6)"><tspan x="0" y="0">Each layer has distinct demand dynamics, education requirements and policy levers</tspan></text>
  <text class="st5" transform="translate(564.51 13.28)"><tspan x="0" y="0">Figure 19 · Techadyant Labs · 2026</tspan></text>
  <text class="st3" transform="translate(7.2 487.04)"><tspan x="0" y="0">Source: NASSCOM-Deloitte 2024; NASSCOM-BCG 2024; EY GCC Pulse 2025; Techadyant Labs framework.</tspan></text>
</svg>
